packages/components/src/components/icon/cashier/ic-cashier-qr-code-dark.svg

<svg width="24" height="24" viewBox="0 0 24 24" fill="none" xmlns="http://www.w3.org/2000/svg">
<path fill-rule="evenodd" clip-rule="evenodd" d="M2.53303 1.1385C1.89811 1.38234 1.5456 1.69872 1.20292 2.332C1.04584 2.62239 1.04099 2.67834 1.02076 4.42915L1 6.22796L1.18155 6.36838C1.38258 6.52385 1.65852 6.54771 1.82267 6.4238C2.06247 6.24274 2.08647 6.07289 2.08647 4.55525C2.08647 2.7048 2.15355 2.48091 2.79434 2.19151C3.03063 2.08477 3.25438 2.06953 4.60216 2.06827C6.15973 2.06681 6.33279 2.0432 6.5169 1.80738C6.64209 1.64701 6.61897 1.37498 6.46357 1.18073L6.32389 1.00603L4.59279 1.00915C3.05551 1.01187 2.82494 1.02639 2.53303 1.1385ZM18.3409 1.17775C18.1835 1.37465 18.1594 1.64621 18.2853 1.80738C18.4694 2.0432 18.6424 2.06681 20.2 2.06827C21.5478 2.06953 21.7715 2.08477 22.0078 2.19151C22.6486 2.48091 22.7157 2.7048 22.7157 4.55525C22.7157 6.07289 22.7397 6.24274 22.9795 6.4238C23.1581 6.55859 23.4494 6.52252 23.632 6.34298L23.8006 6.17717L23.7806 4.43691C23.7608 2.71249 23.759 2.69326 23.5821 2.32219C23.3548 1.84537 22.9409 1.4383 22.456 1.21474C22.0781 1.04051 22.0614 1.03905 20.2791 1.01962L18.4831 1L18.3409 1.17775ZM5.00921 4.56572C4.92966 4.58104 4.80831 4.65463 4.73955 4.72928C4.62548 4.85313 4.61274 5.02219 4.59346 6.6648C4.57061 8.61536 4.58874 8.837 4.78688 9.03185C4.91092 9.15384 5.02735 9.16073 6.96238 9.16073H9.00676L9.15339 9.00732C9.29712 8.85682 9.29995 8.81532 9.29995 6.88139C9.29995 5.72157 9.27279 4.85896 9.23395 4.78763C9.10687 4.55406 8.80155 4.51951 6.94721 4.52886C5.96085 4.53384 5.08876 4.55041 5.00921 4.56572ZM13.3015 4.58555C12.9611 4.72073 12.9404 4.83171 12.9404 6.51854V8.08995L11.9904 8.11149C10.6898 8.14106 10.7831 7.9903 10.7831 10.0631V11.6801H10.1518C9.61512 11.6801 9.49371 11.7007 9.34276 11.8175C9.09184 12.0116 9.09184 12.4094 9.34276 12.6034C9.50443 12.7285 9.61074 12.7408 10.5256 12.7408C11.503 12.7408 11.5354 12.7363 11.6962 12.5781L11.8618 12.4154V10.788V9.16073H12.7938C14.1255 9.16073 14.0191 9.36016 14.0191 6.86508C14.0191 4.95529 14.0136 4.87056 13.8816 4.73127C13.806 4.65145 13.7174 4.58614 13.6849 4.58614C13.6522 4.58614 13.5852 4.57308 13.5358 4.55717C13.4864 4.54119 13.381 4.55399 13.3015 4.58555ZM15.7988 4.61253C15.6838 4.66285 15.5701 4.75448 15.546 4.81627C15.5219 4.87799 15.5022 5.81585 15.5022 6.90042V8.8724L15.6582 9.0166C15.8113 9.15801 15.8527 9.16073 17.8492 9.16073C19.7749 9.16073 19.8912 9.15384 20.0153 9.03185C20.2135 8.83693 20.2315 8.61549 20.2087 6.65969C20.1879 4.88349 20.1852 4.8524 20.0342 4.70389C19.8824 4.55472 19.8587 4.5528 17.9443 4.53708C16.4166 4.52449 15.9637 4.5404 15.7988 4.61253ZM8.2213 6.87344V8.09996H6.97411H5.72692V6.87344V5.64692H6.97411H8.2213V6.87344ZM19.0752 6.87344V8.09996H17.828H16.5809V6.87344V5.64692H17.828H19.0752V6.87344ZM14.7833 10.7172C14.4827 10.9242 14.5342 11.455 14.8695 11.6052C14.9649 11.6479 15.3941 11.6801 15.8695 11.6801H16.7025L16.7259 12.5699C16.7479 13.4042 16.7596 13.4703 16.9128 13.6306L17.0763 13.8016L18.4634 13.7995C19.9536 13.7972 20.0199 13.7835 20.1496 13.4482C20.2342 13.2293 20.1519 12.9923 19.9409 12.847C19.8171 12.7617 19.5977 12.7408 18.8242 12.7408H17.8617V11.9551C17.8617 11.1227 17.7905 10.79 17.5895 10.6842C17.5215 10.6485 16.8955 10.6193 16.1958 10.6193C15.1846 10.6193 14.8965 10.6393 14.7833 10.7172ZM4.78364 11.8453C4.56279 12.0765 4.57357 12.3861 4.80933 12.5856C4.97389 12.7248 5.05897 12.7408 5.63261 12.7408C6.22195 12.7408 6.28539 12.728 6.43782 12.5781C6.65679 12.3628 6.65679 12.0581 6.43782 11.8428C6.28452 11.692 6.22357 11.6801 5.60692 11.6801C4.98481 11.6801 4.93115 11.6908 4.78364 11.8453ZM13.1059 13.6329L12.9404 13.7956V15.4229V17.0502H12.0083C10.7325 17.0502 10.7824 16.9934 10.7853 18.4467C10.7875 19.6178 10.8104 19.7063 11.1425 19.8305C11.365 19.9137 11.606 19.8328 11.7538 19.6253C11.8358 19.5102 11.8618 19.3099 11.8618 18.7924V18.111H12.7078C13.5854 18.111 13.8876 18.0393 13.9772 17.8097C14.0002 17.7507 14.0191 16.8234 14.0191 15.749V13.7956L13.8535 13.6329C13.7493 13.5303 13.6111 13.4701 13.4797 13.4701C13.3484 13.4701 13.2102 13.5303 13.1059 13.6329ZM4.78688 15.3891C4.58867 15.584 4.57061 15.8054 4.59346 17.7612C4.61422 19.5374 4.61699 19.5685 4.768 19.717C4.91901 19.8655 4.9507 19.8682 6.75676 19.8887C8.74553 19.9111 8.9707 19.8934 9.1689 19.6985C9.29294 19.5765 9.29995 19.462 9.29995 17.559V15.5485L9.14395 15.4043C8.99085 15.2629 8.94946 15.2602 6.95294 15.2602C5.02728 15.2602 4.91092 15.2671 4.78688 15.3891ZM15.6488 15.4136C15.505 15.5642 15.5022 15.6049 15.5022 17.5683C15.5022 19.462 15.5092 19.5765 15.6333 19.6985C15.8315 19.8934 16.0566 19.9111 18.0454 19.8887C19.8515 19.8682 19.8831 19.8655 20.0342 19.717C20.1852 19.5685 20.1879 19.5374 20.2087 17.7612C20.2315 15.8054 20.2135 15.584 20.0153 15.3891C19.8912 15.2671 19.7748 15.2602 17.8398 15.2602H15.7954L15.6488 15.4136ZM8.2213 17.5475V18.774H6.97411H5.72692V17.5475V16.321H6.97411H8.2213V17.5475ZM19.0752 17.5475V18.774H17.828H16.5809V17.5475V16.321H17.828H19.0752V17.5475ZM1.18243 18.0519L1.00169 18.1916L1.02164 19.9579C1.04139 21.7107 1.04288 21.7271 1.22004 22.0987C1.44737 22.5755 1.8613 22.9826 2.34616 23.2062C2.72348 23.3801 2.74303 23.3819 4.49652 23.4014L6.26611 23.421L6.43472 23.2552C6.61728 23.0757 6.65395 22.7892 6.5169 22.6135C6.33279 22.3777 6.15973 22.3541 4.60216 22.3526C3.25438 22.3514 3.03063 22.3361 2.79434 22.2294C2.15355 21.94 2.08647 21.7161 2.08647 19.8657C2.08647 18.348 2.06247 18.1782 1.82267 17.9971C1.65879 17.8733 1.38265 17.897 1.18243 18.0519ZM22.9795 17.9971C22.7397 18.1782 22.7157 18.348 22.7157 19.8657C22.7157 21.7161 22.6486 21.94 22.0078 22.2294C21.7715 22.3361 21.5478 22.3514 20.2 22.3526C18.6424 22.3541 18.4694 22.3777 18.2853 22.6135C18.1482 22.7892 18.1849 23.0757 18.3674 23.2552L18.536 23.421L20.3056 23.4014C22.0591 23.3819 22.0787 23.3801 22.456 23.2062C22.9409 22.9826 23.3548 22.5755 23.5821 22.0987C23.759 21.7277 23.7608 21.7084 23.7806 19.984L23.8006 18.2437L23.632 18.0779C23.4494 17.8984 23.1581 17.8623 22.9795 17.9971Z" fill="#C2C2C2"/>
</svg>

<svg width="24" height="24" fill="none" xmlns="http://www.w3.org/2000/svg"><path fill-rule="evenodd" clip-rule="evenodd" d="M2.533 1.139c-.635.243-.987.56-1.33 1.193-.157.29-.162.346-.182 2.097L1 6.228l.182.14c.2.156.477.18.64.056.24-.181.264-.351.264-1.869 0-1.85.068-2.074.708-2.363.237-.107.46-.122 1.808-.124 1.558-.001 1.73-.025 1.915-.26.125-.161.102-.433-.053-.627l-.14-.175-1.731.003c-1.537.003-1.768.017-2.06.13zm15.808.039c-.158.197-.182.468-.056.63.184.235.357.259 1.915.26 1.348.002 1.572.017 1.808.124.64.289.708.513.708 2.363 0 1.518.024 1.688.264 1.869.178.135.47.099.652-.081l.169-.166-.02-1.74c-.02-1.725-.022-1.744-.199-2.115a2.37 2.37 0 00-1.126-1.107c-.378-.174-.395-.176-2.177-.195L18.483 1l-.142.178zM5.009 4.566a.598.598 0 00-.27.163c-.114.124-.126.293-.146 1.936-.022 1.95-.004 2.172.194 2.367.124.122.24.129 2.175.129h2.045l.146-.154c.144-.15.147-.192.147-2.126 0-1.16-.027-2.022-.066-2.093-.127-.234-.432-.268-2.287-.26-.986.006-1.858.022-1.938.038zm8.293.02c-.34.135-.362.246-.362 1.933v1.57l-.95.022c-1.3.03-1.207-.12-1.207 1.952v1.617h-.631c-.537 0-.658.02-.81.138a.504.504 0 000 .785c.162.126.269.138 1.184.138.977 0 1.01-.005 1.17-.163l.166-.163V9.161h.932c1.332 0 1.225.2 1.225-2.296 0-1.91-.005-1.994-.137-2.134-.076-.08-.165-.145-.197-.145a.615.615 0 01-.15-.029.429.429 0 00-.233.029zm2.497.027c-.115.05-.229.141-.253.203-.024.062-.044 1-.044 2.084v1.972l.156.145c.153.141.195.144 2.191.144 1.926 0 2.042-.007 2.166-.13.198-.194.216-.416.194-2.371-.021-1.777-.024-1.808-.175-1.956-.152-.15-.175-.151-2.09-.167-1.527-.013-1.98.003-2.145.076zM8.22 6.873V8.1H5.727V5.647H8.22v1.226zm10.854 0V8.1h-2.494V5.647h2.494v1.226zm-4.292 3.844c-.3.207-.249.738.087.888.095.043.524.075 1 .075h.833l.023.89c.022.834.034.9.187 1.06l.163.172 1.387-.002c1.49-.003 1.557-.017 1.687-.352.084-.219.002-.456-.21-.601-.123-.085-.342-.106-1.116-.106h-.962v-.786c0-.832-.071-1.165-.272-1.27-.069-.037-.695-.066-1.394-.066-1.011 0-1.3.02-1.413.098zm-10 1.128c-.22.231-.21.541.026.74.165.14.25.156.824.156.589 0 .652-.013.805-.163a.494.494 0 000-.735c-.153-.151-.214-.163-.831-.163-.622 0-.676.01-.823.165zm8.323 1.788l-.166.163v3.254h-.932c-1.275 0-1.226-.057-1.223 1.397.002 1.17.025 1.26.357 1.384.223.083.464.002.612-.206.082-.115.108-.315.108-.833v-.681h.846c.877 0 1.18-.072 1.27-.301.022-.06.041-.987.041-2.061v-1.953l-.165-.163a.547.547 0 00-.374-.163c-.132 0-.27.06-.374.163zm-8.32 1.756c-.197.195-.215.416-.193 2.372.021 1.776.024 1.808.175 1.956.151.149.183.151 1.989.172 1.989.022 2.214.004 2.412-.19.124-.123.131-.237.131-2.14v-2.01l-.156-.145c-.153-.141-.195-.144-2.191-.144-1.926 0-2.042.007-2.166.13zm10.863.025c-.144.15-.147.19-.147 2.154 0 1.894.007 2.008.131 2.13.199.195.424.213 2.412.19 1.806-.02 1.838-.023 1.99-.171.15-.148.153-.18.174-1.956.023-1.956.005-2.177-.194-2.372-.124-.122-.24-.129-2.175-.129h-2.045l-.146.154zM8.22 17.547v1.227H5.727V16.321H8.22v1.226zm10.854 0v1.227h-2.494V16.321h2.494v1.226zm-17.893.505l-.18.14.02 1.766c.02 1.753.02 1.77.198 2.14a2.37 2.37 0 001.126 1.108c.377.174.397.176 2.15.195l1.77.02.169-.166c.182-.18.219-.466.082-.642-.184-.235-.357-.259-1.915-.26-1.348-.002-1.571-.017-1.808-.124-.64-.289-.708-.513-.708-2.363 0-1.518-.024-1.688-.263-1.869-.164-.124-.44-.1-.64.055zm21.798-.055c-.24.181-.264.351-.264 1.869 0 1.85-.067 2.074-.708 2.363-.236.107-.46.122-1.808.124-1.558.001-1.73.025-1.915.26-.137.176-.1.463.082.642l.169.166 1.77-.02c1.753-.02 1.773-.02 2.15-.195a2.37 2.37 0 001.126-1.107c.177-.371.179-.39.199-2.115l.02-1.74-.169-.166c-.183-.18-.474-.216-.652-.08z" fill="#C2C2C2"/></svg>
